!!!SOCIAL_FUNCTION:	songs of war
!!!PDT:	1918

Specific Region: Dakotas, Minnesota, Montana, Nebraska
!!!REG: Dakotas and Montana
!!!LING_GROUP: Siouan
!!!LANG: Tone
!!!OTL@ENG: Horses I Am Bringing
!!!ONM: No. 145
**kern
*Imale
*clefF4
*k[f#c#g#]
*M2/4
*MM84
8f#
8f#
8f#
8e
=2
8.d
16B
8B
16f#
16f#
=3
8f#
8e
8.d
16B
=4
8B
8B
8B
8B
=5
16B
8.B
8A
8F#
=6||
*M3/4
8d
16d
16d
8d
16B
16B
8B
16B
16B
=7||
*M2/4
8A
16F#
16A
8A
16F#
16F#
=8
4.F#
8F#
=9||
*M3/4
2.F#
=10||
*M2/4
*MM108
8F#
8f#
8f#
8f#
=11
(8e
24e
24f#
24e)
(8d
8B)
=12
8B
8f#
8f#
8f#
=13
[8e
24e]
24f#
24e)
(8d
8B)
=14
8B
8B
8.B
16B
=15
8B
(24B
24c#
24B)
8A
8F#
=16||
*M3/4
8F#
8d
8d
8d
8d
8B
=17
8d
8B
8B
8B
8A
8F#
=18||
*M2/4
8A
8A
8.F#
16F#
=19
2F#
=20
4F#
4r
==
*-
!!!CNT: Native American -- Sioux
!!!MRD: 1911/07//-1914///
!!!OCL: Frances Densmore
!!!YOR1: Teton Sioux Music, Bulletin 61,
!!!YOR2: Bureau of American Ethnology, Smithsonian Institution
!!!PPR: Government Printing Office
!!!PPP: Washington, D.C.
!!!PDT: 1918///
!!!ENC: Craig Stuart Sapp
!!!END: 2002/03/25/
!!!EEV: 2002/03/31/
!!!AGN: War Song/Song of a Typical War Expedition
!!!MPN@@SIO: Waha'chungka-nong'pa
!!!MPN@ENG: Two Shields
!!!TXO: Teton Sioux
!!!MLC: Standing Rock Reservation, South Dakota, United States of America
!!!ARL: 45.9/-100.7#
!!!catalog: Catalogue No. 529
!!!PPG: 362
!!!EFL: 149/245
!!!VTS: 1204973428
